X:1
T:Concert Étude after Paganini's 12th Caprice
T:Concert Étude after Paganini's 12th Caprice
T:Op. 10, No. 1
T:Robert Schumann
C:Robert Schumann
%%score { ( 1 2 4 ) | ( 3 5 6 ) }
L:1/8
Q:1/4=130
M:4/4
K:Ab
V:1 treble nm="Piano" snm="Pno."
V:2 treble 
V:4 treble 
V:3 bass 
V:5 bass 
V:6 bass 
V:1
"^Allegro molto"!p! (aaaa agf_f | =dec'b agfe | fe!>!_fe =fe!>!_fe) | %3
 (c/c'/=d/e/) (B/g/d/e/) !>!A/(e'/=b/c'/ g/a/e/c/) |!p! (aaaa agf_f | =dec'b agfe) | %6
 (!>!=edec !>!edec) | !>!AG/A/ !>!G^F/G/ =F/ z/ (C/=E/ F/A/c/f/) | %8
"^sempre legato" !>!B!>!B!>!Bb =a_af=d |!<(! efga gfe=d!<)! |!f! !>!c!>!c!>!cB =AcAA | %11
 (B[Q:1/4=130]c[Q:1/4=128][Q:1/4=127]"^.1"=d[Q:1/4=125][Q:1/4=124]"^.3"e[Q:1/4=122][Q:1/4=121]"^.4" f[Q:1/4=120][Q:1/4=118]"^.6"g[Q:1/4=117][Q:1/4=115]"^.7"_a[Q:1/4=114][Q:1/4=112]"^.9"f)[Q:1/4=111] | %12
[Q:1/4=130]"^a tempo" (e=d_dc _cBAG) | (c=B_B=A _AGFE) | %14
!p! C/c/F/c/ =D/=d/G/d/ E/e/"_cresc."B/f/ G/g/d/a/ | %15
 _d/(b/e/c'/) c/(=a/=d/b/) B/(g/c/_a/) A/(f/B/_g/) |!f! _geec =A!>!=A,!>!A,!>!A, | %17
!p! B,/G/B,/e/ B,/=d/B,/_d/ B,/c/B,/_c/ B,/B/B,/G/ | %18
 B,/F/B,/!>!=d/ B,/!>!_d/B,/c/ B,/_c/B,/B/ B,/A/A,/=D/ | %19
"^legatissimo" (G,/E/B,/G/ !>!_C/F/A,/=D/ B,/E/G,/B/ A,/A/B,/F/) | %20
 (G,/E/B,/G/ !>!_C/F/A,/=D/ B,/E/G,/B/ A,/A/B,/F/) |{/G,} E (b!ff!"_Vivace" ag fe_dc | %22
 BA) (=B,/[FA]/C/[_EG]/ A,/[EF]/=A,/[E^F]/ _B,/[EG]/B,/[=D=F]/ | E2) z2 z4 :: %24
!p! (e'e'e'e' e'=d'c'_c' | =abg'f' e'=d'c'b | c'b!>!_c'b =c'b!>!_c'b) | %27
 (g/e'/=a/b/) (f/=d'/a/b/) !>!e/(b'/^f'/g'/ d'/e'/b/g/) | =e'e'e'e'!>(! (e'!^!_d'c'b!>)! | %29
 a/f/)!>!g/c/ f/d/!>!_e/=A/ d/B/!>!c/F/ B/_G/!>!d/F/ | %30
 c/=E/B/E/ A/F/_c/_E/ B/=D/A/D/ _G/E/^A/^C/ ||[K:B]"^legatissimo"!p! (BA=AG!>(! =GFED)!>)! | %32
!p! (G^^F^F^E!>(! =ED^CB,)!>)! | (eee!<(!d cB=AG)!<)! | FEDC x2!<(! x b!<)! | %35
 a=a=g=f!<(! e x x =c' | b_b!<)!_a_g ^e x x c' |!<(! ^b=b=a=g!<)! f x x2 | %38
!<(! =a x x2!<)!!>(! x !^!=c'ba!>)! | =g/e/f/B/ e/=c/=d/^G/ c/=A/B/E/ A/=F/c/E/ | %40
 B/D/=A/D/ =G/E/"^ritard."_B/=D/ A/^C/G/C/ =F/D/A/=C/ ||[K:Ab] (B=A_AG!>(! _GFE!>)!=D) | %42
!p! (G^F=F=E!p! _E=DCB,) | (eee!f!=d cBAG | FE=DC)!<(! x2 x (b!<)! | =a_a!<(!_g=e) ^d!<)! x x (=b | %46
 ^a=a=g=f)!<(! =e x x (c'!<)! | =b_b_a_g)!<(! f x x2!<)! |!<(! a x x2!<)!!>(! x !^!_c'ba!>)! | %49
!p! g^fg"_cresc."a bc'd'=d' | e'f'g'f' e'_d'c'!mf!b |!p! (aaaa agf_f | =dec'b agfe | %53
 fe!>!_fe =fe!>!_fe) | (c/c'/=d/e/) (B/g/=d/e/) A/(e'/=b/c'/ g/a/e/c/) | (aaaa agf_f | %56
 =dec'b agfe | _gfgf gfgf) | !>!dc/d/ !>!c=B/c/ _B/ z/ (F/=A/ B/d/f/b/) | !>!e!>!e!>!ee' =d'_d'bg | %60
!<(! abc'd'!<)! c'bag | !>!f!>!f!>!fe =dfdd | %62
"^ritardando"[Q:1/4=130] (e[Q:1/4=128][Q:1/4=127]"^.5"f[Q:1/4=126][Q:1/4=125]g[Q:1/4=123][Q:1/4=122]"^.5"a[Q:1/4=121][Q:1/4=120] b[Q:1/4=118][Q:1/4=117]"^.5"c'[Q:1/4=116][Q:1/4=115]_d'[Q:1/4=113][Q:1/4=112]"^.5"b)[Q:1/4=111] | %63
[Q:1/4=130]"^a tempo" (ag_gf _fedc) |!ff! (f=e_e=d _dcBA) | %65
!pp! F/f/B/f/ G/g/c/g/ A/a/e/b/ c/(c'/g/d'/) | %66
!<(! _g/(e'/a/f'/) f/(=d'/=g/e'/) e/(c'/f/_d'/) d/(b/e/c'/)!<)! |!f! _c'aaf =d=DDD | %68
!p! E/c/E/!>!a/ E/!>!g/E/_g/"^un poco ritenuto" E/f/E/_f/ E/e/E/c/ | %69
 E/B/E/!>!g/ E/!>!_g/E/f/ E/_f/E/e/ E/d/E/B/ | A/a/c/e/ d/f/d/_f/ c/e/A/a/ d/=f/G/_f/ | %71
 A/e/c/e/ d/f/d/_f/ c/e/A/a/ d/=f/G/_f/ | x"^Vivace"!f! e'!ff! (d'c' ba!>(!_gf | %73
 ed)!>)! (=E/[Bd]/F/[_Ac]/ D/[AB]/=D/[A=B]/ _E/[Ac]/E/[G_B]/) | [EA]2 z2 z4 :| %75
V:2
 a/A/a/A/ a/A/a/A/ a/A/g/A/ f/A/_f/A/ | =d/A/e/A/ c'/A/b/A/ a/A/g/A/ f/A/e/A/ | %2
 f/G/e/G/ _f/G/e/G/ =f/G/e/G/ _f/G/e/G/ | !>!c z !>!B z x4 | a/A/a/A/ a/A/a/A/ a/A/g/A/ f/A/_f/A/ | %5
 =d/A/e/A/ c'/A/b/A/ a/A/g/A/ f/A/e/A/ | =e/G/d/G/ e/G/c/G/ e/G/d/G/ e/G/c/G/ | %7
 A/c/G/A/ G/c/^F/G/ x4 | B/B,/B/B,/ B/B,/b/B/ =a/B/_a/B/ f/B/=d/A/ | %9
 e/G/f/F/ g/E/a/=D/ g/E/f/F/ e/G/=d/F/ | c/E/c/E/ c/E/B/=E/ =A/_E/c/_G/ A/G/F/E/ | %11
 B/=D/c/"^.6"C/ =d/"^.7"D/e/"^.9"E/ f/F/g/"^.1"G/ a/"^.3"A/f/"^.4"F/ | %12
 z/ E/=D/E/ _D/E/C/E/ _C/E/B,/E/ A,/=D/G,/E/ | %13
 z/ C/=B,/C/ _B,/C/=A,/C/ _A,/C/G,/C/[I:staff +1] F,/=B,/E,/C/ |[I:staff -1] C_E=DF EAGA | %15
 dccB B_AA_G | _g/=A/e/A/ e/_G/c/G/ A/^F/=A,/E/ A,/F/A,/E/ | x8 | x4 x2 B,A, | G,B,_CA, B,G,A,B, | %20
 G,B,_CA, B,G,A,B, | x b/B/ f/=de/ d/=Bc/ _B/GA/ | G/=EF/ =B,C A,=A,_B,B, | B,2 x2 x4 :: %24
 e'/e/e'/e/ e'/e/e'/e/ e'/e/=d'/e/ c'/e/_c'/e/ | =a/e/b/f/ g'/e/f'/e/ e'/e/=d'/e/ c'/e/b/e/ | %26
 c'/=d/b/d/ _c'/d/b/d/ =c'/d/b/d/ _c'/d/b/d/ | !>!g z !>!f z x4 | %28
 =e'/=e/e'/e/ e'/e/e'/e/ e'/e/d'/e/ c'/e/b/e/ | x8 | x8 || %31
[K:B] B/!<(!B,/A/B,/ =A/B,/G/B,/!<)! =G/B,/F/B,/ E/^A,/D/B,/ | %32
 G/!<(!G,/^^F/G,/ ^F/G,/^E/G,/!<)! =E/G,/D/G,/ C/^^F,/B,/G,/ | %33
 e/E/e/E/ e/E/d/B/ c/=A/B/G/ A/F/G/E/ | F/D/E/C/ D/B,/C/^A,/ (b/B/b/B/ b/B/b/B/ | %35
 b/B/b/B/ b/B/b/B/ =c'/)=c/c'/c/ (c'/c/c'/c/ | =c'/=c/c'/c/ c'/c/c'/c/ ^c'/)^c/c'/c/ c'/c/c'/c/ | %37
 c'/c/c'/c/ c'/c/c'/c/ =d'/=d/d'/d/ d'/d/d'/d/ | ^d'/^d/d'/d/ d'/d/d'/d/ d'/d/=c'/d/ b/d/=a/d/ | %39
 x8 | x8 ||[K:Ab] B/!<(!B,/=A/B,/ _A/B,/G/!<)!B,/ _G/B,/F/B,/ E/=A,/=D/B,/ | %42
 G/!<(!G,/^F/G,/ =F/G,/=E/!<)!G,/ _E/G,/=D/G,/ C/^F,/B,/G,/ | %43
 e/E/e/E/ e/E/=d/B/ c/A/B/G/ A/F/G/E/ | F/=D/E/C/ D/B,/C/=A,/ b/B/b/B/ b/B/b/B/ | %45
 b/B/b/B/ b/B/^a/^A/ =b/=B/b/B/ b/B/b/B/ | =b/=B/b/B/ b/B/b/B/ =c'/=c/c'/c/ c'/c/c'/c/ | %47
 c'/c/c'/c/ c'/c/c'/c/ _d'/d/d'/d/ d'/d/d'/d/ | =d'/=d/d'/d/ d'/d/d'/d/ d'/d/_c'/d/ b/d/a/d/ | %49
 g/e/^f/^F/ g/G/a/A/ b/B/c'/c/ d'/d/=d'/=d/ | e'/e/f'/f/ g'/g/f'/f/ e'/e/d'/d/ c'/c/b/B/ | %51
 a/A/a/A/ a/A/a/A/ a/A/g/A/ f/A/_f/A/ | =d/A/e/A/ c'/A/b/A/ a/A/g/A/ f/A/e/A/ | %53
 f/G/e/G/ _f/G/e/G/ =f/G/e/G/ _f/G/e/G/ | c z B z x4 | a/A/a/A/ a/A/a/A/ a/A/g/A/ f/A/_f/A/ | %56
 =d/A/e/A/ c'/A/b/A/ a/A/g/A/ f/A/e/A/ | _g/=A/f/A/ g/A/f/A/ g/A/f/A/ g/A/f/A/ | %58
 d/f/c/d/ c/f/=B/c/ x4 | e/E/e/E/ e/E/e'/e/ =d'/e/_d'/e/ b/e/g/e/ | %60
 a/c/b/B/ c'/A/d'/G/ c'/A/b/B/ a/c/g/B/ | f/A/f/A/ f/A/e/=A/ =d/_A/f/_c/ d/c/B/A/ | %62
 e/"^.7"G/f/"^.2"F/ g/"^.8"G/a/"^.2"A/ b/"^.7"B/c'/"^.3"c/ d'/"^.8"d/b/"^.2"B/ | %63
 z/ A/G/A/ _G/A/F/A/ _F/A/E/A/ D/=G/C/A/ | z/ F/=E/F/ _E/F/=D/F/ _D/F/C/F/ B,/=E/A,/F/ | %65
 FAGB Adcd | _gffe eddc | _c'/=d/a/d/ a/_c/f/c/ d/=B/=D/A/ D/B/D/A/ | x8 | x8 | Acdd cAdG | %71
 Acdd cAdG |{/[Ac]} e e'/e/ b/ga/ g/=ef/ _e/cd/ | c/=AB/ =EF D=D_EE | x8 :| %75
V:3
 .E,/.A,,/(!>!C .E,/).A,,/(!>!C .E,/).A,,/(!>!C .E,/).A,,/(!>!C | %1
 .E,/).A,,/(!>!C .E,/).A,,/(!>!C .E,/).A,,/(!>!C .E,/).A,,/(!>!C | %2
 .E,/).A,,/(!>!D .E,/).A,,/(!>!B, .E,/).A,,/(!>!D .E,/).A,,/(!>!B, | %3
 .E,/).A,,/(!>!C .E,/).A,,/(!>!_D!ped! .E,/).A,,/!>!C- C2 | %4
 .E,/.A,,/!ped-up!(!>!C .E,/).A,,/(!>!C .E,/).A,,/(!>!C .E,/).A,,/(!>!C | %5
 .E,/).A,,/(!>!C .E,/).A,,/(!>!C .E,/).A,,/(!>!C .E,/).A,,/!>!C | x D2 C x D2 (C | %7
 F,/)C,/(C =E,/)C,/(C F,/)C,/[I:staff -1]C[I:staff +1] C,/F,,/(A, | %8
 B,,/)=D,,/(F, B,,/)C,,/(E, B,,/)B,,,/(=D, B,,/)B,,,/(F, | %9
 E,/)E,,/(=D, E,/)E,,/(F, G,/)E,,/(A, B,/)E,,/(=B, | %10
 A,/)A,,/(C _G,/)_G,,/(C F,/)F,,/(=A, F,/)F,,/(C | %11
 B,/)B,,/"^riten."(=A, B,/)B,,/(A, _A,/)B,,/(G, F,/)B,,/([B,_D] | %12
 [E,E]) z .[E,,G,,E,]z/.[A,,E,A,]/ (A,G,) (F,E,) | %13
 .[C,,C,] z .[C,,=E,,C,]z/.[F,,C,F,]/ F,_E, G,,2 | A,=A,B,=B, C=DEF | G_A^FG =E=F=D_E | %16
 (=A,C)(CE E,)(CE,)_C | %17
"^un poco ritenente"!ped! B,,/E,,/(G, B,,/)E,,/(G,!ped-up! B,,/)E,,/(G, B,,/)E,,/(G, | %18
!ped! B,,/)E,,/(A, B,,/)E,,/(A,!ped-up! B,,/)E,,/(A, B,,/)E,,/(F, | (B,,)E,A,,F, G,,E,B,,=D,) | %20
 (B,,E,A,,F, G,,E,B,,=D,) | B,,/E,,/G, =B,,,C,, =D,,E,,=E,,F,, | G,,A,,=D,_E, C,_C,_B,,_A, | %23
 E,2 z2 z4 :: .B,/.E,/(G .B,/).E,/(G .B,/).E,/(G .B,/).E,/(G | %25
 .B,/).E,/(G .B,/).E,/(G .B,/).E,/(G .B,/).E,/(G | %26
 .B,/).E,/(A .B,/).E,/(A .B,/).E,/(A .B,/).E,/(F | %27
 .B,/).E,/(G .B,/).E,/(_A!ped! .B,/).E,/G- .G2!ped-up! | .G,/.C,/=E- E[K:treble](!^!d cBAG | %29
 F) (!>!ba) (!>!FB,) (!>!ed) (B, | C)"^ritard." (!>!dc) (!>!A,B,) (!>!_cB)[K:bass] ^F, || %31
[K:B] (B,,C,D,=D,- D, C,2 B,,) | G,,A,,^B,,=B,,- B,,B,,A,,G,, | %33
"^a tempo" (G,,G,,,) z .[G,,,G,,] .[=A,,,=A,,].[B,,,B,,].[^B,,,^B,,].[C,,C,] | %34
 .[D,,D,].[E,,E,].F,.F,, .F,/.B,,/D- DB,/D/ | CDE z x2 x =C | %36
[K:treble] =D/=F/E/=G/ F/_A/ z[K:bass] x2 x C |[K:treble] D/F/^E/G/ F/=A/ z[K:bass] x4 | %38
 =C/=F,/=A- A[K:treble](=c B=A=GF | E) (=a=g) (E=A,) (=d=c) (A, | B,) (=cB) (=G,=A,) (_B=A) =F, || %41
[K:Ab][K:bass] (B,,C,=D,_D,- D, C,2 B,,) | G,,=A,,=B,,_B,,- B,,B,,A,,G,, | %43
"^a tempo" (G,,G,,,) z .[G,,,G,,] .[A,,,A,,].[B,,,B,,].[=B,,,=B,,].[C,,C,] | %44
 .[=D,,=D,].[E,,E,].F,.F,, x2 x B, |[K:treble] C/E/=D/F/ E/_G/ z[K:bass] ^F,/=B,,/^D- D=B,/D/ | %46
[K:treble] ^C/=E/^D/^F/ E/G/ z[K:bass] x2 x =C |[K:treble] =D/F/=E/G/ F/_A/ z[K:bass] _D/F,/A- A2 | %48
 _C/F,/A- A[K:treble](_c BAGF | (E)=DE=F GAB_c |[K:bass] [G,B,B][F,A,A][E,G,G][F,A,F] E4) | %51
 .E,/.A,,/(C .E,/).A,,/(C .E,/).A,,/(C .E,/).A,,/(C | %52
 .E,/).A,,/(C .E,/).A,,/(C .E,/).A,,/(C .E,/).A,,/(C | %53
 .E,/).A,,/(D .E,/).A,,/(B, .E,/).A,,/(D .E,/).A,,/(B, | %54
 .E,/).A,,/(C .E,/).A,,/(_D!ped! .E,/).A,,/C- C2!ped-up! | %55
 .E,/.A,,/(C .E,/).A,,/(C .E,/).A,,/(C .E,/).A,,/(C | %56
 .E,/).A,,/(C .E,/).A,,/(C .E,/).A,,/(C .E,/).A,,/(C | F,/)E,/(C =A,/)F,/(E C/)A,/(F E/)C/(F | %58
 B,/)F,/(F =A,/)F,/(F B,/)F,/[I:staff -1]F[I:staff +1] F,/B,,/(D | %59
 E,/)G,,/(B, E,/)F,,/(A, E,/)E,,/(G, E,/)E,,/(B, | A,/)A,,/(G, A,/)A,,/(B, C/)A,,/(D E/)A,,/(=E | %61
 D/)D,/(F _C/)_C,/(F B,/)B,,/(=D B,/)B,,/F | x3 FG =AB G | x4 A,2 E,2 | %64
 .[F,,F,] z .[F,,=A,,F,]z/.[B,,F,B,]/ F,2 C,2 | D=DE=E FG[K:treble] AB | c_d=Bc =A_BG_A | %67
 (=DF)(FA)[K:bass] x4 |!ped! .E,/.A,,/(C .E,/).A,,/(C!ped-up! .E,/).A,,/(C .E,/).A,,/(C | %69
 .E,/).A,,/(D .E,/).A,,/(D .E,/).A,,/(B, .E,/).A,,/=G, | (E,/A,,/A, E,/A,,/B, E,/A,,/C E,/A,,/B,) | %71
 (E,/A,,/A, E,/A,,/B, E,/A,,/C E,/A,,/B, | E,/)A,,/C =E,,F,, G,,A,,=A,,B,, | %73
 C,D, (G,_A, F,_F,_E,D | C2) z2 z4 :| %75
V:4
 x8 | x8 | x8 | x8 | x8 | x8 | x3 B3/2 x/ x x B | x8 | x8 | x8 | x8 | x8 | x8 | x8 | x8 | x8 | x8 | %17
 x8 | x8 | x8 | x8 | x8 | x8 | x8 :: x8 | x8 | x8 | x8 | x8 | x8 | x8 ||[K:B] x8 | x8 | x8 | x8 | %35
 x8 | x8 | x8 | x8 | x8 | x8 ||[K:Ab] x8 | x8 | x8 | x8 | x8 | x8 | x8 | x8 | x8 | x8 | x8 | x8 | %53
 x8 | x8 | x8 | x8 | x2 x c3/2 x/ x2 e | x8 | x8 | x8 | x8 | x8 | x8 | x8 | x8 | x8 | x8 | x8 | %69
 x8 | x8 | x8 | x8 | x8 | x8 :| %75
V:5
 x8 | x8 | x8 | x8 | x8 | x8 | C,/B,,/D =E,/C,/C G,/E,/D B,/G,/C | x8 | x8 | x8 | x8 | %11
 x2 x C=D =EF x | x4 (A,,G,,) (F,,E,,) | x4 (F,,_E,,) ([=D,,=D,][C,,C,]) | %14
 z/ A,,/F, z/ B,,/G, z/ C,/_B, z/ E,/B, | z/ E/_A, z/ =D/G, z/ C/=F, z/ B,/_E, | %16
 =A,/E,/C C/E,/E E,/C,/C E,/_C,/_C | x8 | x8 | B,,/E,,/E, A,,/E,,/F, G,,/E,,/E, B,,/E,,/=D, | %20
 B,,/E,,/E, A,,/E,,/F, G,,/E,,/E, B,,/E,,/=D, | x8 | x8 | E,,2 x2 x4 :: x8 | x8 | x8 | x8 | %28
 x3[K:treble] x5 | x8 | x7[K:bass] x ||[K:B] x2 z (E,, ^E,,F,,^^F,,G,,) | x2 x C,, ^^C,, D,,2 E,, | %33
 x8 | x4 x2 x B, | C/E/D/F/ E/=G/ x =G,/=C,/E- E=C/E/ | %36
[K:treble] =DE=F x[K:bass] ^G,/^C,/^E- EC/E/ |[K:treble] D^EF x[K:bass] =D/F,/=A- A2 | %38
 x3[K:treble] x5 | x8 | x8 ||[K:Ab][K:bass] x2 z (E,, =E,,F,,^F,,=G,,) | x2 z C,, ^C,, =D,,2 _E,, | %43
 x8 | x4 F,/B,,/=D- DB,/D/ |[K:treble] C=DE x[K:bass] x2 x =B, | %46
[K:treble] ^C^D=E x[K:bass] =G,/=C,/=E- E=C/E/ |[K:treble] =D=EF x[K:bass] x4 | x3[K:treble] x5 | %49
 x2 E=D _DCB,[A,_C] |[K:bass] x4 [^F,=A,][G,B,][_A,C][B,D] | x8 | x8 | x8 | x8 | x8 | x8 | x8 | %58
 x8 | x8 | x8 | x8 | E/E,/(=D E/)E,/(D _D/)E,/(C B,/)E,/E | %63
 [A,A] z .[A,,C,A,]z/.[D,A,D]/ ([D,D][C,C]) ([B,,B,][A,,A,]) | %64
 x4 ([B,,B,][_A,,_A,]) ([G,,G,][F,,F,]) | z/ D,/B, z/ E,/C z/ F,/_E[K:treble] z/ A,/E | %66
 z/ A/_D z/ G/C z/ F/B, z/ E/_A, | =D/A,/F F/A,/A[K:bass] A,/F,/F A,/_F,/_F | x8 | x8 | x8 | x8 | %72
 x8 | x8 | A,,2 x2 x4 :| %75
V:6
 x8 | x8 | x8 | x8 | x8 | x8 | x8 | x8 | x8 | x8 | x8 | x8 | x4 E,2 B,,2 | x4 C,2 x2 | x8 | x8 | %16
 x8 | x8 | x8 | x8 | x8 | x8 | x8 | x8 :: x8 | x8 | x8 | x8 | x3[K:treble] x5 | x8 | %30
 x7[K:bass] x ||[K:B] x8 | x8 | x8 | x8 | x8 |[K:treble] x4[K:bass] x4 |[K:treble] x4[K:bass] x4 | %38
 x3[K:treble] x5 | x8 | x8 ||[K:Ab][K:bass] x8 | x8 | x8 | x8 |[K:treble] x4[K:bass] x4 | %46
[K:treble] x4[K:bass] x4 |[K:treble] x4[K:bass] x4 | x3[K:treble] x5 | x8 |[K:bass] x8 | x8 | x8 | %53
 x8 | x8 | x8 | x8 | x8 | x8 | x8 | x8 | x8 | x8 | x8 | x8 | x6[K:treble] x2 | x8 | x4[K:bass] x4 | %68
 x8 | x8 | x8 | x8 | x8 | x8 | x8 :| %75

